!!!COM: Joplin, Scott
!!!CDT: 1868/11/24/-1917/04/01/
!!!OTL: A Breeze from Alabama
!!!ONB: March and Two-Step
!!!ODT: 1902///
!!!PPR: John Stark & Son
!!!PPP: St. Louis, Missouri
!!!PDT: 1902///
!!!ENC: Craig Stuart Sapp
!!!END: 2004/06/09/
!!!YEC: Copyright 2004 by Craig Stuart Sapp
!!!YEN: United States of America
**kern	**kern	**dynam
*staff2	*staff1	*staff1
*Ipiano	*Ipiano	*Ipiano
*>[I,A,A1,A,A2,B,B1,B,B2,C,C1,C,C2,D,E,E1,E2,F,G,G1,G,G2]	*>[I,A,A1,A,A2,B,B1,B,B2,C,C1,C,C2,D,E,E1,E2,F,G,G1,G,G2]	*>[I,A,A1,A,A2,B,B1,B,B2,C,C1,C,C2,D,E,E1,E2,F,G,G1,G,G2]
*>norep[I,A,A2,B,B2,C,C2,D,E,E2,F,G,G2]	*>norep[I,A,A2,B,B2,C,C2,D,E,E2,F,G,G2]	*>norep[I,A,A2,B,B2,C,C2,D,E,E2,F,G,G2]
*>I	*>I	*>I
*clefF4	*clefG2	*clefG2
*k[]	*k[]	*k[]
*M2/4	*M2/4	*M2/4
*MM90	*MM90	*MM90
8c	8g e	.
=1	=1	=1
*^	*^	*
8cL	8A F#	8ccL	8cc d#	.
16AL	8r	16aL	8r	.
16G#JJ	.	16g#JJ	.	.
16ALL	8r	16aLL	8r	.
16BJ	.	16bJ	.	.
[8cJ	[8Gn	[8ccJ	[8e	.
*v	*v	*	*	*
*	*v	*v	*
=2	=2	=2
16c]LL G]	16cc]LL e]	.
16G	16g	.
16E	16e	.
16D#JJ	16d#JJ	.
16ELL	16eLL	.
16FJ	16fJ	.
[8GJ	[8gJ	.
=3	=3	=3
16GLL]	16gLL]	.
16F	16f	.
16D	16d	.
16C#JJ	16c#JJ	.
16ELL	16eLL	.
16D	16d	.
16BB	16B	.
16AAJJ	16AJJ	.
=4	=4	=4
8GG	8G	.
8r	8r	.
8GG GGG	8ggL dd b g	.
8r	8gJ	.
=5!|:	=5!|:	=5!|:
*>A	*>A	*>A
8CL	16eeLL g	f
.	16dd# f#	.
8eJ c G	16ee g	.
.	[16ccJJ [e	.
8GGL	16cc]LL e]	.
.	16e	.
8eJ c G	16fn	.
.	16f#JJ	.
=6	=6	=6
8CL	16gLL	.
.	16cc	.
8eJ c G	16ee	.
.	[16ggJJ [ee [g	.
8GGL	16gg]LL ee] g]	.
.	16ff#J dd# f#	.
8eJ c G	8ggJ ee g	.
=7	=7	=7
8CL	16eeLL g	.
.	16dd# f#	.
8eJ c G	16ee g	.
.	[16ccJJ [e	.
8GGL	16cc]LL e]	.
.	16e	.
8eJ c G	16fn	.
.	16f#JJ	.
=8	=8	=8
8CL	16gLL	.
.	16cc	.
8eJ c G	16ee	.
.	[16ggJJ [ee [g	.
8GGL	16gg]LL ee] g]	.
.	16ff#J dd# f#	.
8eJ c G	8ggJ ee g	.
=9	=9	=9
8DL	16ggLL g	.
.	16gg# ff g#	.
8fJ B G	16aa ff a	.
.	[16bbJJ [ff [b	.
8GGL	16bb]LL ff] b]	.
.	16ggn ff gn	.
8fJ B G	16aa ff a	.
.	16bbJJ ff b	.
=10	=10	=10
8CL	16cccLL ee cc	.
.	16bb ee b	.
8eJ c G	16ccc ee cc	.
.	[16eeeJJ [gg [ee	.
8C#L	16eee]LL gg] ee]	.
.	16ddd#J dd#	.
8gJ A#	8eeeJ ee	.
=11	=11	=11
8DL	16eeeLL	.
.	16ddd	.
8gJ d B	16ccc#	.
.	[16dddJJ	.
8DL	16dddLL]	.
.	16ccc# ee	.
8f#J d c	16bb dd	.
.	16aaJJ cc	.
=12	=12	=12
*^	*	*
[4g^ [d	8GL	[4gg^ [b	.
.	16FnL	.	.
.	[16DJJ	.	.
8g] d]	16DLL]	8gg]L b]	.
.	16BBJ	.	.
8r	8GGJ	8ffnJ dd b g	.
*v	*v	*	*
=13	=13	=13
8CL	16eeLL cc g	f
.	16dd# f#	.
8eJ c G	16ee g	.
.	[16ccJJ [e	.
8GGL	16cc]LL e]	.
.	16e	.
8eJ c G	16fn	.
.	16f#JJ	.
=14	=14	=14
8CL	16gLL	.
.	16cc	.
8eJ c G	16ee	.
.	[16ggJJ [ee [g	.
8GGL	16gg]LL ee] g]	.
.	16ff#J dd# f#	.
8eJ c G	8ggJ ee g	.
=15	=15	=15
8CL	16eeLL g	.
.	16dd f	.
8eJ c G	(16ee g	.
.	16gJJ	.
8C#L	16gLL)	.
.	16b-	.
8eJ A G	16a	.
.	16g#JJ	.
=16	=16	=16
8DL	16aLL	.
.	16dd	.
8dJ A F	16ff	.
.	[16aaJJ [ff [a	.
8FL	16aa]LL ff] a]	.
.	16ff	.
8dJ A	16dd	.
.	16aJJ	.
=17	=17	=17
*>A1	*>A1	*>A1
*^	*^	*
8cL	8A F#	8ccL	8cc d#	.
16AL	8r	16aL	8r	.
16G#JJ	.	16g#JJ	.	.
16ALL	8r	16aLL	8r	.
16BJ	.	16bJ	.	.
[8cJ	[8Gn	[8ccJ	[8e	.
*v	*v	*	*	*
*	*v	*v	*
=18	=18	=18
16c]LL G]	16cc]LL e]	.
16G	16g	.
16E	16e	.
16D#JJ	16d#JJ	.
16ELL	16eLL	.
16FJ	16fJ	.
[8GJ	[8gJ	.
=19	=19	=19
16GLL]	16gLL]	.
16F	16f	.
16D	16d	.
16C#JJ	16c#JJ	.
16ELL	16eLL	.
16D	16d	.
16BB	16B	.
16AAJJ	16AJJ	.
=20	=20	=20
8GG	8G	.
8r	8r	.
8GG GGG	8ggL dd b g	.
8r	8gJ	.
=21:|!	=21:|!	=21:|!
*>A2	*>A2	*>A2
8d# c A F#	16aLL	.
.	16g#	.
8r	16a	.
.	16bJJ	.
8d# c A F#	16ccLL	.
.	16b	.
8r	16cc	.
.	16ddJJ	.
=22	=22	=22
8eL c G	8ee	.
8AJ AA	4ff cc# g	.
4AA AAA	.	.
.	8ee cc# g	.
=23	=23	=23
8DL DD	8ee ccn f#	.
8GJ GG	4ee b fn	.
4GG GGG	.	.
.	8dd b f	.
=24	=24	=24
8C CC	8cc e	.
8r	8r	.
8C CC	8ccc) ee	.
8r	8r	.
=25!|:	=25!|:	=25!|:
*>B	*>B	*>B
8FFL	8aa ff a	f
8fJ c A	4ccc aa cc	.
8AAL	.	.
8fJ c A	8aa ff a	.
=26	=26	=26
8CL	8aa ff a	.
8eJ c G	4.gg ee g	.
8EL	.	.
8eJ c G	.	.
=27	=27	=27
8GGL	16ffLL dd	.
.	16ee cc	.
8fJ B G	16dd b	.
.	16eeJJ cc	.
8BBL	16ffLK dd	.
.	8aa ff	.
8fJ B G	.	.
.	16aaJk ff	.
=28	=28	=28
8CL	16ggLL ee	.
.	16ff dd	.
8eJ c G	16ee cc	.
.	16ffJJ dd	.
8CL	16ggLK ee	.
.	8ccc ee	.
8eJ c G	.	.
.	16cccJk ee	.
=29	=29	=29
8FFL	8aa ff a	.
8fJ c A	4ccc aa cc	.
8AAL	.	.
8fJ c A	8aa ff a	.
=30	=30	=30
8CL	8aa ff a	.
8eJ c G	4.gg ee g	.
8EL	.	.
8eJ c G	.	.
=31	=31	=31
8AL AA	16cccLL ee cc	.
.	16bb ee b	.
8eJ c A	16aa ee a	.
.	16bbJJ ee b	.
8FL FF	16cccLL aa cc	.
.	16ccc# aa cc#	.
8FJ FF	16ddd bb aa dd	.
.	16ddd#JJ bb aa dd#	.
=32	=32	=32
8E EE	8eee bb gg# ee	.
8r	8r	.
4c^ C	4ggn^ ee b-	.
=33	=33	=33
8FFL	8aa ff a	f
8fJ c A	4ccc aa cc	.
8AAL	.	.
8fJ c A	8aa ff a	.
=34	=34	=34
8CL	8aa ff a	.
8eJ c G	4.gg ee g	.
8EL	.	.
8eJ c G	.	.
=35	=35	=35
8GGL	16ffLL dd	.
.	16ee cc	.
8fJ B G	16dd b	.
.	16eeJJ cc	.
8BBL	16ffLK dd	.
.	8aa ff	.
8fJ B G	.	.
.	16aaJk ff	.
=36	=36	=36
8CL	16ggLL ee	.
.	16ff dd	.
8eJ c G	16ee cc	.
.	16ffJJ dd	.
8EL	16ggLK ee	.
.	8ccc ee	.
8eJ c G	.	.
.	16cccJk ee	.
=37	=37	=37
8FL	8dddL dd	.
8dJ c A	[8dddJ [dd	.
8F#L	16ddd]LL dd]	.
.	16ccc	.
8d#J c A	16bb	.
.	16aaJJ	.
=38	=38	=38
8GL	8aaL ee	.
8eJ c	[8ggJ [ee	.
8EL	16gg]LL ee]	.
.	16cc	.
8eJ c G	16dd	.
.	16eeJJ	.
=39	=39	=39
8DL	8gg b	.
8dJ G	4ff b	.
4G GG	.	.
.	8b g f	.
=40	=40	=40
*>B1	*>B1	*>B1
8C CC	8ccL g e	.
8r	16ggL g	.
.	16ggJJ g	.
4r	8ggL g	.
.	8ggJ g	.
=41:|!	=41:|!	=41:|!
*>B2	*>B2	*>B2
8C CC	8cc g e	.
8r	8r	.
8C CC	8ccc) ee	.
8r	8r	.
=42	=42	=42
*>C	*>C	*>C
*k[b-e-a-d-]	*k[b-e-a-d-]	*k[b-e-a-d-]
8A-L AA-	8cccL ee- cc	.
8cJ A- E-	[8cccJ [ee- [cc	.
8E-L EE-	16ccc]LL ee-] cc]	.
.	16ee-	.
8cJ A- E-	16aa-	.
.	16bb-JJ	.
=43	=43	=43
8A-L AA-	16cccLK ee- cc	.
.	8ccc ee- cc	.
8cJ A- E-	.	.
.	[16cccJk [ee- [cc	.
8E-L EE-	16ccc]LL ee-] cc]	.
.	16ccc cc	.
8cJ A- E-	16ddd- dd-	.
.	16eee-JJ ee-	.
=44	=44	=44
8D-L DD-	8fffL aa- ff	.
8d-J A- F	[8fffJ [aa- [ff	.
8D-L DD-	16fff]LL aa-] ff]	.
.	16fff aa- ff	.
8d-J A- F	16eee- gg ee-	.
.	16ddd-JJ ff dd-	.
=45	=45	=45
8A-L AA-	16cccLK ee- cc	.
.	8ccc ee- cc	.
8cJ A- E-	.	.
.	[16cccJk [ee- [cc	.
8E-L EE-	16ccc]LL ee-] cc]	.
.	16ccc cc	.
8cJ A- E-	16bb- b-	.
.	16aa-JJ a-	.
=46	=46	=46
8B-L BB-	8ggL dd- g	.
8d-J B- E-	[8ggJ [dd- [g	.
8E-L EE-	16gg]LL dd-] g]	.
.	16ee- e-	.
8d-J B- E-	16ff f	.
.	16ggJJ g	.
=47	=47	=47
8A-L AA-	16aa-LK cc a-	.
.	8aa- cc a-	.
8cJ A- E-	.	.
.	[16aa-Jk [cc [a-	.
8E-L EE-	16aa-]LL cc] a-]	.
.	16ccc cc	.
8cJ A- E-	16bb- b-	.
.	16aa-JJ a-	.
=48	=48	=48
8D-L DD-	8ffL b- f	.
8BB-J BBB-	[8ddd-J [ff [dd-	.
8E-L EE-	16ddd-]LL ff] dd-]	.
.	16ddd- dd-	.
8d-J G E-	16ccc cc	.
.	16bb-JJ b-	.
=49	=49	=49
8c A-	8aa-L a-	.
8r	16aa-L a-	.
.	16aa-JJ a-	.
4r	8aa-L a-	.
.	8bb-J b-	.
=50	=50	=50
8EnL	8bbnL bn	.
8BnJ G#	[8bbJ [b	.
8EL	16bb]LL b]	.
.	16een en	.
8BJ G#	16gg# g#	.
.	16bbnJJ bn	.
=51	=51	=51
8D#L	16ff#LK dd# bn f#	.
.	8ff# dd# b f#	.
8BnJ F#	.	.
.	[16ff#Jk [dd# b [f#	.
8BB-L	16ff#]LL dd#] b f#]	.
.	16ff# f#	.
8BJ F# D#	16bbn bn	.
.	16ddd#JJ dd#	.
=52	=52	=52
8FF#L	8ccc#L cc#	.
8A#J F# En	[8ccc#J [cc#	.
8FF#L	16ccc#]LL cc#]	.
.	16ff# f#	.
8A#J F# E	16gg# g#	.
.	16aa#JJ a#	.
=53	=53	=53
8Bn F# D# BBn	8bbnL bn	.
8r	16bbL b	.
.	16bbJJ b	.
4r	8bbL b	.
.	8bbJ b	.
=54	=54	=54
8E-L	8bbnL bn	.
8BnJ G#	[8bbJ [b	.
8E-L	16bb]LL b]	.
.	16een en	.
8BJ G#	16gg# g#	.
.	16bbJJ bn	.
=55	=55	=55
8E-L	16cccLK ee- cc	.
.	8ccc ee- cc	.
8cJ A- E-	.	.
.	[16cccJk [ee- [cc	.
8E-L	16ccc]LL ee-] cc]	.
.	16ccc cc	.
8cJ A-	16bb- b-	.
.	16aa-JJ a-	.
=56	=56	=56
8E-L EE-	8ggL dd- g	.
8d-J G E-	[8eee-J [ee-	.
8E-L EE-	16eee-]LL ee-]	.
.	16ddd- dd-	.
8d-J G E-	16ccc cc	.
.	16bb-JJ b-	.
=57	=57	=57
*>C1	*>C1	*>C1
8c A-	8aa-L a-	.
8r	16ee-L	.
.	16ee-JJ	.
4r	8ee-L	.
.	8ee-J	.
=58:|!	=58:|!	=58:|!
*>C2	*>C2	*>C2
8c A-	8aa-L a-	.
8r	16aa-L a-	.
.	16aa-JJ a-	.
4d- A- F D-	8aa-L a-	.
.	8aa-J a-	.
=59	=59	=59
*>D	*>D	*>D
8AnL F C	8aanL an	.
[8fJ [F	[8fffJ [ff	.
16f]LL F]	16fff]LL ff]	.
16en En	16eeen een	.
16dn Dn	16dddn ddn	.
16cJJ C	16cccJJ cc	.
=60	=60	=60
16EnLL EEn	16ggLL g	.
16FJ FF	16aanJ an	.
[8GJ [GG	[8bb-J [b-	.
16G]LL GG]	16bb-]LL b-]	.
16C CC	16bb- ddn b-	.
16Dn DDn	16aan cc an	.
16EnJJ EEn	16ggJJ b- g	.
=61	=61	=61
8F FF	8ff an f	.
4D- DD-	4ff dd- a- f	.
8D- DD-	8ff dd- a- f	.
=62	=62	=62
8F FF	8ff cc an f	.
8r	8r	.
8FF FFF	8fff ccc aa- ff	.
8r	8r	.
=63!|:	=63!|:	=63!|:
*>E	*>E	*>E
*k[b-]	*k[b-]	*k[b-]
8EL	8.b-L g	p
8cJ B- G	.	.
.	16ccJk	.
8CL	8.b-L g	.
8cJ B- G	.	.
.	16ccJk	.
=64	=64	=64
8EL	16r	.
.	16eeLL	.
8cJ B- G	16dd	.
.	16ccJJ	.
8CL	16b-LL	.
.	16a	.
8cJ B- G	16b-	.
.	16gJJ	.
=65	=65	=65
8FL	8.aL f	.
8cJ A	.	.
.	16ccJk	.
4C	8.aL f	.
.	16ccJk	.
=66	=66	=66
8FL	16r	.
.	16ffLL	.
8cJ A	16ee	.
.	16ddJJ	.
8CL	16ccLL	.
.	16bn	.
8cJ A	16cc	.
.	16aJJ	.
=67	=67	=67
8GL	8.aaL b-	.
8eJ c B-	.	.
.	16ggJk	.
8CL	[4b-	.
8eJ c B-	.	.
=68	=68	=68
4G	16b-LL]	.
.	16cc	.
.	16ee b-	.
.	16ccJJ	.
4C	16ddLL	.
.	16ee	.
.	16dd	.
.	16ccJJ	.
=69	=69	=69
8FL	8.ggL a	.
8fJ A	.	.
.	16ffJk	.
8CL	[4a	.
8fJ c A	.	.
=70	=70	=70
8FL	16aLL]	.
.	16a	.
8fJ c A	16dd	.
.	16aJJ	.
8CL	16ccLL	.
.	16dd	.
8fJ c A	16cc	.
.	16aJJ	.
=71	=71	=71
8EL	8.b-L g	.
8cJ B- G	.	.
.	16ccJk	.
8CL	8.b-L g	.
8cJ B- G	.	.
.	16ccJk	.
=72	=72	=72
8EL	16r	.
.	16eeLL	.
8cJ B- G	16dd	.
.	16ccJJ	.
8CL	16b-LL	.
.	16a	.
8cJ B- G	16b-	.
.	16gJJ	.
=73	=73	=73
8FL	8.aL f	.
8cJ A	.	.
.	16ccJk	.
8CL	8.aL f	.
8AJ	.	.
.	16ccJk	.
=74	=74	=74
8FL	16r	.
.	16ffLL	.
8cJ A	16ee	.
.	16ddJJ	.
8CL	16ccLL	.
.	16bn	.
8cJ A	16cc	.
.	16aJJ	.
=75	=75	=75
8D-L	8.ffL f	f
8BnJ A- F	.	.
.	16ggJk g	.
8D-L	4aa- a-	.
8BJ A- F	.	.
=76	=76	=76
8CL	16r	.
.	16ffLL	p
8cJ An F	16aan cc	.
.	16ffJJ	.
8CL	16ggLL	.
.	16aa	.
8fJ c A	16gg	.
.	16ffJJ	.
=77	=77	=77
8GL	16bb-LL)	.
.	16aaJ	.
8eJ c B-	[8ggJ	.
8CL	16ggLL]	.
.	16bb-	.
8eJ c B-	16aa	.
.	16ggJJ	.
=78	=78	=78
*>E1	*>E1	*>E1
8f c A F	8ffL	.
8r	16ccL	.
.	16ccJJ	.
4r	8ccL	.
.	8ccJ	.
=79:|!	=79:|!	=79:|!
*>E2	*>E2	*>E2
8f c A F	8ff	.
8r	8r	.
8FFL	8FL	.
8FF#J	8F#J	.
=80	=80	=80
*>F	*>F	*>F
*^	*	*
8GL	8GGL	2r	.
[8AJ	[8AAJ	.	.
16ALL]	16AALL]	.	.
16G	16GG	.	.
16F#	16FF#	.	.
16GJJ	16GGJJ	.	.
=81	=81	=81	=81
8cL	8CL	2r	.
[8dJ	[8DJ	.	.
16dLL]	16DLL]	.	.
16c	16C	.	.
16Bn	16BBn	.	.
16cJJ	16CJJ	.	.
*v	*v	*	*
=82	=82	=82
4fn Bn G	16aLL)	.
.	16g	.
.	16f#	.
.	16gJJ	.
4f B G	16g#LL	.
.	16a	.
.	16a#	.
.	16bJJ	.
=83	=83	=83
8e c	8cc	.
8r	8r	.
8C CC	8ccc) ee	.
8r	8r	.
=84!|:	=84!|:	=84!|:
*>G	*>G	*>G
*k[]	*k[]	*k[]
8FFL	8aa ff a	f
8fJ c A	4ccc aa cc	.
8AAL	.	.
8fJ c A	8aa ff a	.
=85	=85	=85
8CL	8aa ff a	.
8eJ c G	4.gg ee g	.
8EL	.	.
8eJ c G	.	.
=86	=86	=86
8GGL	16ffLL dd	.
.	16ee cc	.
8fJ B G	16dd b	.
.	16eeJJ cc	.
8BBL	16ffLK dd	.
.	8aa ff	.
8fJ B G	.	.
.	16aaJk ff	.
=87	=87	=87
8CL	16ggLL ee	.
.	16ff dd	.
8eJ c G	16ee cc	.
.	16ffJJ dd	.
8CL	16ggLK ee	.
.	8ccc ee	.
8fJ c A	.	.
.	16cccJk ee	.
=88	=88	=88
8FFL	8aa ff a	.
8fJ c A	4ccc aa cc	.
8AAL	.	.
8fJ c A	8aa ff a	.
=89	=89	=89
8CL	8aa ff a	.
8eJ c G	4.gg ee g	.
8EL	.	.
8eJ c A	.	.
=90	=90	=90
4A AA	16cccLL ee cc	.
.	16bb ee b	.
.	16aa ee a	.
.	16bbJJ ee b	.
8FL FF	16cccLL aa cc	.
.	16ccc# aa cc#	.
8FJ FF	16ddd bb aa dd	.
.	16ddd#JJ bb aa dd#	.
=91	=91	=91
8E EE	8eee bb gg# ee	.
8r	8r	.
4c^ C	4ggn^ ee b-	.
=92	=92	=92
8FFL	8aa ff a	f
8fJ c A	4ccc aa cc	.
8AAL	.	.
8fJ c A	8aa ff a	.
=93	=93	=93
8CL	8aa ff a	.
8eJ c G	4.gg ee g	.
8EL	.	.
8eJ c G	.	.
=94	=94	=94
8GGL	16ffLL dd	.
.	16ee cc	.
8fJ B G	16dd b	.
.	16eeJJ cc	.
8BBL	16ffLK dd	.
.	8aa ff	.
8fJ B G	.	.
.	16aaJk ff	.
=95	=95	=95
8CL	16ggLL ee	.
.	16ff dd	.
8eJ c G	16ee cc	.
.	16ffJJ dd	.
8EL	16ggLK ee	.
.	8ccc ee	.
8eJ c G	.	.
.	16cccJk ee	.
=96	=96	=96
8FL	8dddL dd	.
8dJ c A	[8dddJ [dd	.
8F#L	16ddd]LL dd]	.
.	16ccc	.
8d#J c A	16bb	.
.	16aaJJ	.
=97	=97	=97
8GL	8aaL ee	.
8eJ c	[8ggJ [ee	.
8EL	16gg]LL ee]	.
.	16cc	.
8eJ c G	16dd	.
.	16eeJJ	.
=98	=98	=98
8DL	8gg b	.
8dJ G	4ff b	.
4G GG	.	.
.	8b g f	.
=99	=99	=99
*>G1	*>G1	*>G1
8C CC	8ccL g e	.
8r	16ggL g	.
.	16ggJJ g	.
4r	8ggL g	.
.	8ggJ g	.
=100:|!	=100:|!	=100:|!
*>G2	*>G2	*>G2
8C CC	8cc g e	.
8r	8r	.
8C CC	8ccc) ee	.
==	==	==
*-	*-	*-
!!!ENC: Craig Stuart Sapp
!!!END: 2005/02/04
!!!EEV: 2018/06/01
